!!!!SEGMENT: pl-sa--l-1636--069_anonim--fuga.krn
!!!cenid: 17xx:776
!!!COM: Anonim
!!!COM-rismid: pe30004985
!!!CDT:
!!!CNT:
!!!OTL: Fuga
!!!PDT:
!!!AGN: Secular; Fugue
!!!SMS-siglum: PL-SA
!!!SMS-shelfmark: L 1636
!!!SMS-shelfwork: 069 W
!!!SMS-variant:
!!!SMS-altvar:
!!!NIFC-rismid: 1001076877
!!!URL-scan: http://repozytorium.nifc.pl/skany/pl-sa-nut--l1636
!!!ONB-nifc: 20v, skan 0024, s. 3-4
**kern	**kern
*part1	*part1
*staff2	*staff1
*I"[Keyboard]	*
*I'keyb	*
*clefF4	*clefC1
*k[]	*k[]
*C:	*C:
*M2/2	*M2/2
*met(c|)	*met(c|)
=1	=1
!LO:TX:i:a:t=Fuga	!
1r	1c
=2-	=2-
2r	2e/
*2\right	*
2G\	2g/
=3	=3
!	!LO:TX:a:t=P:problem:źródło zamazane
2A\	2f/
!	!LO:TX:a:t=P:problem:źródło zamazane
[>2c\	2e/
=4-	=4-
2c\]	1d
2B\	.
=5	=5
*	*^
2r	[>1e	[<1c
2C/	.	.
=6	=6	=6
2E\	2e/]	2c\]
2G\	2d/	2B\
=7	=7	=7
*^	*	*
2A/	2F\	2d/	1ryy
2G/	2E\	2c/	.
=8	=8	=8	=8
*	*	*	*2\right
2A/	1D	1f	2c\
2B/	.	.	2d\
*	*	*v	*v
=9	=9	=9
[>1c	1C	4e/
!	!	!LO:TX:b:t=P:problem:# below
.	.	4f#/
.	.	4g/
.	.	4e/
=10	=10	=10
*	*	*^
2c/]	1D	2f#X/	1d
2B/	.	2g/	.
!!LO:LB:g=original
=11	=11	=11	=11
1A	1D	2g/	2d\
.	.	2f#X/	4.d\
.	.	.	8c\
=12	=12	=12	=12
1G	2r	1g	1d 1B
.	2GG\	.	.
=13	=13	=13	=13
2A/	2AA\	2f/	1c
2G/	2C\	2e/	.
*	*	*v	*v
=14	=14	=14
1G	2C\	1d
.	2BB\	.
=15	=15	=15
*	*	*^
2E/	2AA\	2c/	[<1A
2F/	2FF\	2d/	.
=16	=16	=16	=16
2F/	1GG	2d/	2A\]
2E/	.	2e/	2c\
=17	=17	=17	=17
1G	1D 1GG	1d	2c\
.	.	.	2B\
=18	=18	=18	=18
1C	1GG 1EE 1CC	1e 1c	1G
*v	*v	*	*
*	*v	*v
!LO:TX:a:t=P:problem:w źródle końcowa kreska taktowa :||:	!LO:TX:a:t=P:problem:w źródle końcowa kreska taktowa :||:
==;;	==;;
*-	*-
!!!system-decoration: s1,s2
!!!RDF**kern: > = above
!!!RDF**kern: < = below
!!!EED: Antoni Szymański
!!!EST: 2020-12-08
!!!ENC: Tomasz Grochalski
!!!END: 2020-06-11
